X: 8302
T: Corofin Departure, The
R: reel
M: 4/4
K: Gmajor
|:DGBd cEGE|DGBG AGAB|cded cBAB|cBAG (3FGA DC|
B,DGB cEGE|DGBG AGAB|cded cBAB|cADF G4:|
|:d3B c3A|BBAB G2 AB|cded cBAB|cBAG F2 (3ABc|
d3B c3A|BBAB G2 AB|cded cBAB|cADF G2(3ABc:|

